libs/ui/packages/crypto-icons/src/svg/XMY.svg

<svg width="24" height="24" viewBox="0 0 24 24" fill="none">
<path fill-rule="evenodd" clip-rule="evenodd" d="M15.7875 15.75C15.336 15.75 14.8403 15.5227 14.8403 14.841C14.8403 14.505 15.1028 13.4722 15.6263 11.742C15.7335 11.475 15.7868 11.235 15.7868 11.0227C15.7868 10.614 15.4718 10.2053 14.8853 10.2053C14.5448 10.2053 13.803 10.3403 13.578 11.0677C13.428 11.553 13.0823 12.8408 12.5408 14.9318C12.3308 15.477 11.955 15.75 11.4143 15.75C10.6028 15.75 10.467 15.159 10.467 14.7952C10.467 14.6512 10.683 13.7805 11.1158 12.1852C11.2845 11.6527 11.3685 11.265 11.3685 11.0227C11.3685 10.659 11.0985 10.2053 10.467 10.2053C9.8363 10.2053 9.2498 10.659 8.9798 11.6588C8.7998 12.3263 8.54405 13.326 8.2133 14.6588C8.0333 15.3863 7.6268 15.75 6.99605 15.75C6.42455 15.75 6.12455 15.432 6.09455 14.7952L7.13105 10.4775H4.8323C4.68984 10.4825 4.54784 10.4589 4.41464 10.4081C4.28144 10.3574 4.15973 10.2805 4.05668 10.1821C3.95364 10.0836 3.87133 9.96549 3.8146 9.83473C3.75787 9.70397 3.72788 9.56318 3.72638 9.42065C3.72488 9.27812 3.7519 9.13673 3.80586 9.00481C3.85982 8.87288 3.93963 8.75308 4.04058 8.65245C4.14153 8.55183 4.26159 8.47241 4.39369 8.41888C4.5258 8.36535 4.66727 8.33879 4.8098 8.34075H8.66405C9.2048 8.34075 9.53555 8.59875 9.65555 9.11325C10.197 8.43225 10.9178 8.25 11.55 8.25C12.1823 8.25 12.9923 8.61375 13.353 9.432C13.848 8.886 14.7053 8.25 15.9225 8.25C17.049 8.25 17.9963 9.0225 17.9963 10.386C17.9963 10.9012 17.7405 11.9775 17.2298 13.614L19.2075 13.6005C19.7858 13.6005 20.25 14.082 20.25 14.6752C20.25 15.2685 19.7858 15.75 19.2128 15.75H15.7875Z" fill="white"/>
<path fill-rule="evenodd" clip-rule="evenodd" d="M15.7994 15.75C15.3479 15.75 14.8521 15.5227 14.8521 14.841C14.8521 14.505 15.1146 13.4722 15.6381 11.742C15.7454 11.475 15.7986 11.235 15.7986 11.0227C15.7986 10.614 15.4836 10.2053 14.8971 10.2053C14.5566 10.2053 13.8149 10.3403 13.5899 11.0677C13.4399 11.553 13.0941 12.8408 12.5526 14.9318C12.3426 15.477 11.9669 15.75 11.4261 15.75C10.6146 15.75 10.4789 15.159 10.4789 14.7952C10.4789 14.6512 10.6949 13.7805 11.1276 12.1852C11.2964 11.6527 11.3804 11.265 11.3804 11.0227C11.3804 10.659 11.1104 10.2053 10.4789 10.2053C9.84814 10.2053 9.26164 10.659 8.99164 11.6588C8.81164 12.3263 8.55589 13.326 8.22514 14.6588C8.04514 15.3863 7.63864 15.75 7.00789 15.75C6.43639 15.75 6.13639 15.432 6.10639 14.7952L7.14289 10.4775H4.84414C4.70169 10.4825 4.55968 10.4589 4.42648 10.4081C4.29328 10.3574 4.17157 10.2805 4.06852 10.1821C3.96548 10.0836 3.88317 9.96549 3.82644 9.83473C3.76972 9.70397 3.73972 9.56318 3.73822 9.42065C3.73672 9.27812 3.76374 9.13673 3.8177 9.00481C3.87166 8.87288 3.95147 8.75308 4.05242 8.65245C4.15337 8.55183 4.27343 8.47241 4.40553 8.41888C4.53764 8.36535 4.67911 8.33879 4.82164 8.34075H8.67589C9.21664 8.34075 9.54739 8.59875 9.66739 9.11325C10.2089 8.43225 10.9296 8.25 11.5619 8.25C12.1941 8.25 13.0041 8.61375 13.3649 9.432C13.8599 8.886 14.7171 8.25 15.9344 8.25C17.0609 8.25 18.0081 9.0225 18.0081 10.386C18.0081 10.9012 17.7524 11.9775 17.2416 13.614L19.2194 13.6005C19.7976 13.6005 20.2619 14.082 20.2619 14.6752C20.2619 15.2685 19.7976 15.75 19.2246 15.75H15.7994Z" fill="#EC1076"/>
</svg>

<svg width="24" height="24" viewBox="0 0 24 24" fill="none"><path fill="#fff" fill-rule="evenodd" d="M15.788 15.75c-.452 0-.948-.227-.948-.909q0-.504.786-3.099.16-.4.16-.72c0-.408-.314-.817-.9-.817-.341 0-1.083.135-1.308.863q-.225.727-1.037 3.864-.315.818-1.127.818c-.811 0-.947-.591-.947-.955q0-.216.649-2.61.252-.798.252-1.162c0-.364-.27-.818-.901-.818-.63 0-1.217.454-1.487 1.454q-.27 1-.767 3-.27 1.09-1.217 1.091-.856 0-.901-.955l1.036-4.318H4.832a1.067 1.067 0 0 1-1.026-1.472A1.07 1.07 0 0 1 4.81 8.34h3.854q.811 0 .992.772c.541-.68 1.262-.863 1.894-.863s1.442.364 1.803 1.182c.495-.546 1.352-1.182 2.57-1.182 1.126 0 2.073.773 2.073 2.136q0 .773-.766 3.228l1.977-.014c.579 0 1.043.482 1.043 1.075s-.464 1.075-1.037 1.075z" clip-rule="evenodd"/><path fill="#ec1076" fill-rule="evenodd" d="M15.8 15.75c-.452 0-.948-.227-.948-.909q0-.504.786-3.099.16-.4.16-.72c0-.408-.314-.817-.9-.817-.341 0-1.083.135-1.308.863q-.225.727-1.037 3.864-.315.818-1.127.818c-.811 0-.947-.591-.947-.955q0-.216.649-2.61.252-.798.252-1.162c0-.364-.27-.818-.901-.818-.63 0-1.217.454-1.487 1.454q-.27 1-.767 3-.27 1.09-1.217 1.091-.857 0-.902-.955l1.037-4.318H4.844a1.067 1.067 0 0 1-1.026-1.472 1.07 1.07 0 0 1 1.004-.664h3.854q.81 0 .991.772c.542-.68 1.263-.863 1.895-.863s1.442.364 1.803 1.182c.495-.546 1.352-1.182 2.57-1.182 1.126 0 2.073.773 2.073 2.136q0 .773-.766 3.228l1.977-.014c.579 0 1.043.482 1.043 1.075s-.464 1.075-1.037 1.075z" clip-rule="evenodd"/></svg>
